public/images/icon-2.svg

<svg width="52" height="52" viewBox="0 0 52 52" fill="none" xmlns="http://www.w3.org/2000/svg">
<g filter="url(#filter0_d_1985_8817)">
<rect x="2" y="1" width="48" height="48" rx="10" fill="white" shape-rendering="crispEdges"/>
<rect x="2.5" y="1.5" width="47" height="47" rx="9.5" stroke="#EAECF0" shape-rendering="crispEdges"/>
</g>
<g filter="url(#filter1_b_1985_8817)">
<path fill-rule="evenodd" clip-rule="evenodd" d="M16.5657 19.9558C16.5657 22.7556 18.7991 24.9994 21.586 24.9994C24.3719 24.9994 26.6063 22.7556 26.6063 19.9558C26.6063 17.1559 24.3719 14.9121 21.586 14.9121C18.7991 14.9121 16.5657 17.1559 16.5657 19.9558ZM29.1719 30.7094C29.1719 28.1175 25.6769 27.4691 21.5849 27.4691C17.4707 27.4691 13.9979 28.1399 13.9979 30.7337C13.9979 33.3256 17.4929 33.9741 21.5849 33.9741C25.6991 33.9741 29.1719 33.3033 29.1719 30.7094Z" fill="url(#paint0_linear_1985_8817)"/>
</g>
<g filter="url(#filter2_f_1985_8817)">
<path d="M23.231 29.1328C25.7294 29.1328 27.8633 29.5635 27.8633 31.2848C27.8633 33.0075 25.743 33.453 23.231 33.453C20.7326 33.453 18.5987 33.0223 18.5987 31.301C18.5987 29.5783 20.719 29.1328 23.231 29.1328" fill="#0E4DC7"/>
</g>
<g filter="url(#filter3_f_1985_8817)">
<path d="M22.8131 22.5084C21.4105 22.5084 20.2864 21.3553 20.2864 19.9163C20.2864 18.4774 21.4105 17.3242 22.8131 17.3242C24.2153 17.3242 25.3398 18.4774 25.3398 19.9163C25.3398 21.3553 24.2153 22.5084 22.8131 22.5084" fill="#0E4DC7"/>
</g>
<g filter="url(#filter4_b_1985_8817)">
<mask id="path-6-outside-1_1985_8817" maskUnits="userSpaceOnUse" x="18" y="12" width="22" height="27" fill="black">
<rect fill="white" x="18" y="12" width="22" height="27"/>
<path fill-rule="evenodd" clip-rule="evenodd" d="M22.4674 19.6145C22.4674 23.2863 25.3963 26.2289 29.0512 26.2289C32.7047 26.2289 35.635 23.2863 35.635 19.6145C35.635 15.9426 32.7047 13 29.0512 13C25.3963 13 22.4674 15.9426 22.4674 19.6145ZM39 33.7184C39 30.3193 34.4165 29.4689 29.0501 29.4689C23.6546 29.4689 19.1002 30.3486 19.1002 33.7503C19.1002 37.1494 23.6837 37.9998 29.0501 37.9998C34.4457 37.9998 39 37.1201 39 33.7184Z"/>
</mask>
<path fill-rule="evenodd" clip-rule="evenodd" d="M22.4674 19.6145C22.4674 23.2863 25.3963 26.2289 29.0512 26.2289C32.7047 26.2289 35.635 23.2863 35.635 19.6145C35.635 15.9426 32.7047 13 29.0512 13C25.3963 13 22.4674 15.9426 22.4674 19.6145ZM39 33.7184C39 30.3193 34.4165 29.4689 29.0501 29.4689C23.6546 29.4689 19.1002 30.3486 19.1002 33.7503C19.1002 37.1494 23.6837 37.9998 29.0501 37.9998C34.4457 37.9998 39 37.1201 39 33.7184Z" fill="#4780F0"/>
<path d="M29.0512 27.0852C24.9196 27.0852 21.6111 23.7555 21.6111 19.6145H23.3237C23.3237 22.8172 25.873 25.3726 29.0512 25.3726L29.0512 27.0852ZM36.4913 19.6145C36.4913 23.7556 33.1813 27.0852 29.0512 27.0852L29.0512 25.3726C32.2282 25.3726 34.7787 22.8171 34.7787 19.6145H36.4913ZM29.0512 12.1437C33.1813 12.1437 36.4913 15.4733 36.4913 19.6145H34.7787C34.7787 16.4119 32.2282 13.8563 29.0512 13.8563V12.1437ZM21.6111 19.6145C21.6111 15.4734 24.9196 12.1437 29.0512 12.1437V13.8563C25.873 13.8563 23.3237 16.4117 23.3237 19.6145H21.6111ZM29.0501 28.6126C31.7528 28.6126 34.3613 28.8233 36.321 29.511C37.3065 29.8568 38.1883 30.3436 38.8299 31.0404C39.4895 31.7567 39.8563 32.6544 39.8563 33.7184H38.1437C38.1437 33.0828 37.9376 32.5996 37.57 32.2005C37.1845 31.7818 36.585 31.4186 35.7539 31.127C34.0802 30.5397 31.7139 30.3252 29.0501 30.3252V28.6126ZM18.2439 33.7503C18.2439 32.6876 18.6075 31.7888 19.2633 31.0694C19.9017 30.3691 20.7803 29.8775 21.7648 29.5272C23.7219 28.8308 26.3315 28.6126 29.0501 28.6126V30.3252C26.3732 30.3252 24.0078 30.5469 22.3389 31.1407C21.5103 31.4356 20.9131 31.8018 20.529 32.2231C20.1622 32.6254 19.9565 33.1122 19.9565 33.7503H18.2439ZM29.0501 38.8561C26.3475 38.8561 23.7389 38.6454 21.7792 37.9577C20.7937 37.6119 19.9119 37.1251 19.2703 36.4283C18.6107 35.712 18.2439 34.8143 18.2439 33.7503H19.9565C19.9565 34.3859 20.1627 34.8691 20.5302 35.2682C20.9157 35.6869 21.5152 36.0501 22.3463 36.3417C24.02 36.929 26.3864 37.1435 29.0501 37.1435V38.8561ZM39.8563 33.7184C39.8563 34.7811 39.4927 35.68 38.8369 36.3994C38.1985 37.0996 37.3199 37.5912 36.3355 37.9415C34.3783 38.6379 31.7687 38.8561 29.0501 38.8561V37.1435C31.727 37.1435 34.0924 36.9219 35.7613 36.328C36.5899 36.0332 37.1871 35.667 37.5713 35.2456C37.938 34.8433 38.1437 34.3565 38.1437 33.7184H39.8563Z" fill="url(#paint1_linear_1985_8817)" mask="url(#path-6-outside-1_1985_8817)"/>
</g>
<defs>
<filter id="filter0_d_1985_8817" x="0" y="0" width="52" height="52" filterUnits="userSpaceOnUse" color-interpolation-filters="sRGB">
<feFlood flood-opacity="0" result="BackgroundImageFix"/>
<feColorMatrix in="SourceAlpha" type="matrix" values="0 0 0 0 0 0 0 0 0 0 0 0 0 0 0 0 0 0 127 0" result="hardAlpha"/>
<feOffset dy="1"/>
<feGaussianBlur stdDeviation="1"/>
<feComposite in2="hardAlpha" operator="out"/>
<feColorMatrix type="matrix" values="0 0 0 0 0.0627451 0 0 0 0 0.0941176 0 0 0 0 0.156863 0 0 0 0.05 0"/>
<feBlend mode="normal" in2="BackgroundImageFix" result="effect1_dropShadow_1985_8817"/>
<feBlend mode="normal" in="SourceGraphic" in2="effect1_dropShadow_1985_8817" result="shape"/>
</filter>
<filter id="filter1_b_1985_8817" x="2.86408" y="3.78009" width="37.4398" height="41.3265" filterUnits="userSpaceOnUse" color-interpolation-filters="sRGB">
<feFlood flood-opacity="0" result="BackgroundImageFix"/>
<feGaussianBlur in="BackgroundImageFix" stdDeviation="5.56601"/>
<feComposite in2="SourceAlpha" operator="in" result="effect1_backgroundBlur_1985_8817"/>
<feBlend mode="normal" in="SourceGraphic" in2="effect1_backgroundBlur_1985_8817" result="shape"/>
</filter>
<filter id="filter2_f_1985_8817" x="7.46564" y="18.0008" width="31.5297" height="26.5843" filterUnits="userSpaceOnUse" color-interpolation-filters="sRGB">
<feFlood flood-opacity="0" result="BackgroundImageFix"/>
<feBlend mode="normal" in="SourceGraphic" in2="BackgroundImageFix" result="shape"/>
<feGaussianBlur stdDeviation="5.56601" result="effect1_foregroundBlur_1985_8817"/>
</filter>
<filter id="filter3_f_1985_8817" x="7.44052" y="4.47958" width="30.744" height="30.8729" filterUnits="userSpaceOnUse" color-interpolation-filters="sRGB">
<feFlood flood-opacity="0" result="BackgroundImageFix"/>
<feBlend mode="normal" in="SourceGraphic" in2="BackgroundImageFix" result="shape"/>
<feGaussianBlur stdDeviation="6.42232" result="effect1_foregroundBlur_1985_8817"/>
</filter>
<filter id="filter4_b_1985_8817" x="5.39755" y="-0.700103" width="47.3025" height="52.4002" filterUnits="userSpaceOnUse" color-interpolation-filters="sRGB">
<feFlood flood-opacity="0" result="BackgroundImageFix"/>
<feGaussianBlur in="BackgroundImageFix" stdDeviation="6.42232"/>
<feComposite in2="SourceAlpha" operator="in" result="effect1_backgroundBlur_1985_8817"/>
<feBlend mode="normal" in="SourceGraphic" in2="effect1_backgroundBlur_1985_8817" result="shape"/>
</filter>
<linearGradient id="paint0_linear_1985_8817" x1="20.4678" y1="25.7196" x2="34.8053" y2="31.2689" gradientUnits="userSpaceOnUse">
<stop stop-color="#4780F0"/>
<stop offset="1" stop-color="#0E4DC7"/>
</linearGradient>
<linearGradient id="paint1_linear_1985_8817" x1="35.8323" y1="15.9125" x2="19.5203" y2="31.9937" gradientUnits="userSpaceOnUse">
<stop stop-color="white" stop-opacity="0.25"/>
<stop offset="1" stop-color="white" stop-opacity="0"/>
</linearGradient>
</defs>
</svg>

<?xml version="1.0" encoding="UTF-8"?>
<svg id="Layer_1" xmlns="http://www.w3.org/2000/svg" version="1.1" xmlns:xlink="http://www.w3.org/1999/xlink" viewBox="0 0 52 52">
  <!-- Generator: Adobe Illustrator 30.0.0, SVG Export Plug-In . SVG Version: 2.1.1 Build 123)  -->
  <defs>
    <style>
      .st0 {
        fill: none;
        stroke: #eaecf0;
      }

      .st1 {
        fill: #fff;
      }

      .st2 {
        mask: url(#mask);
      }

      .st3, .st4 {
        fill-rule: evenodd;
      }

      .st5 {
        fill: #3f00c9;
      }

      .st6 {
        fill: url(#linear-gradient);
      }

      .st4 {
        fill: #6b1aff;
      }
    </style>
    <mask id="mask" x="18" y="12" width="22" height="27" maskUnits="userSpaceOnUse">
      <g id="path-6-outside-1_1985_8817">
        <rect class="st1" x="18" y="12" width="22" height="27"/>
        <path class="st3" d="M22.47,19.61c0,3.67,2.93,6.61,6.58,6.61s6.58-2.94,6.58-6.61-2.93-6.61-6.58-6.61-6.58,2.94-6.58,6.61ZM39,33.72c0-3.4-4.58-4.25-9.95-4.25s-9.95.88-9.95,4.28,4.58,4.25,9.95,4.25,9.95-.88,9.95-4.28Z"/>
      </g>
    </mask>
    <linearGradient id="linear-gradient" x1="38.33" y1="35.55" x2="22.02" y2="19.47" gradientTransform="translate(0 54) scale(1 -1)" gradientUnits="userSpaceOnUse">
      <stop offset="0" stop-color="#fff" stop-opacity=".25"/>
      <stop offset="1" stop-color="#fff" stop-opacity="0"/>
    </linearGradient>
  </defs>
  <g>
    <rect class="st1" x="2" y="1" width="48" height="48" rx="10" ry="10" shape-rendering="crispEdges"/>
    <rect class="st0" x="2.5" y="1.5" width="47" height="47" rx="9.5" ry="9.5" shape-rendering="crispEdges"/>
  </g>
  <path class="st4" d="M16.57,19.96c0,2.8,2.23,5.04,5.02,5.04s5.02-2.24,5.02-5.04-2.23-5.04-5.02-5.04-5.02,2.24-5.02,5.04ZM29.17,30.71c0-2.59-3.49-3.24-7.59-3.24s-7.59.67-7.59,3.26,3.5,3.24,7.59,3.24,7.59-.67,7.59-3.26Z"/>
  <path class="st5" d="M23.23,29.13c2.5,0,4.63.43,4.63,2.15s-2.12,2.17-4.63,2.17-4.63-.43-4.63-2.15,2.12-2.17,4.63-2.17"/>
  <path class="st5" d="M22.81,22.51c-1.4,0-2.53-1.15-2.53-2.59s1.12-2.59,2.53-2.59,2.53,1.15,2.53,2.59-1.12,2.59-2.53,2.59"/>
  <g>
    <path class="st4" d="M22.47,19.61c0,3.67,2.93,6.61,6.58,6.61s6.58-2.94,6.58-6.61-2.93-6.61-6.58-6.61-6.58,2.94-6.58,6.61ZM39,33.72c0-3.4-4.58-4.25-9.95-4.25s-9.95.88-9.95,4.28,4.58,4.25,9.95,4.25,9.95-.88,9.95-4.28Z"/>
    <g class="st2">
      <path class="st6" d="M29.05,27.09c-4.13,0-7.44-3.33-7.44-7.47h1.71c0,3.2,2.55,5.76,5.73,5.76v1.71ZM36.49,19.61c0,4.14-3.31,7.47-7.44,7.47v-1.71c3.18,0,5.73-2.56,5.73-5.76h1.71ZM29.05,12.14c4.13,0,7.44,3.33,7.44,7.47h-1.71c0-3.2-2.55-5.76-5.73-5.76v-1.71ZM21.61,19.61c0-4.14,3.31-7.47,7.44-7.47v1.71c-3.18,0-5.73,2.56-5.73,5.76h-1.71ZM29.05,28.61c2.7,0,5.31.21,7.27.9.99.35,1.87.83,2.51,1.53.66.72,1.03,1.61,1.03,2.68h-1.71c0-.64-.21-1.12-.57-1.52-.39-.42-.99-.78-1.82-1.07-1.67-.59-4.04-.8-6.7-.8v-1.71ZM18.24,33.75c0-1.06.36-1.96,1.02-2.68.64-.7,1.52-1.19,2.5-1.54,1.96-.7,4.57-.91,7.29-.91v1.71c-2.68,0-5.04.22-6.71.82-.83.29-1.43.66-1.81,1.08-.37.4-.57.89-.57,1.53h-1.71ZM29.05,38.86c-2.7,0-5.31-.21-7.27-.9-.99-.35-1.87-.83-2.51-1.53-.66-.72-1.03-1.61-1.03-2.68h1.71c0,.64.21,1.12.57,1.52.39.42.99.78,1.82,1.07,1.67.59,4.04.8,6.7.8v1.71ZM39.86,33.72c0,1.06-.36,1.96-1.02,2.68-.64.7-1.52,1.19-2.5,1.54-1.96.7-4.57.91-7.29.91v-1.71c2.68,0,5.04-.22,6.71-.82.83-.29,1.43-.66,1.81-1.08.37-.4.57-.89.57-1.53h1.71Z"/>
    </g>
  </g>
</svg>
